X:WFS 13-12 30
T:Soldier's Joy
M:4/4
K:D
[P:A] AFDF AFDF |1 A2d2 d2B2 :|2 G2E2 E2FG :|3 A2d2 d2e2 | fagf egfe d2f2 d2 :|
[P:B] e2| f2f2 fagf e2e2 egfe |1 f2f2 fagf | edcB A2 :|2 fafd egec d2f2 d2 :|

%%text Staten Island Ferry (WFS 13-12 31 = WFS 13-07 10)

%%text Morpeth Rant (New) (WFS 13-12 32 = WFS 13-10 28)

